svg/UnitedNations-Flags/flag-km.svg

<?xml version="1.0" encoding="UTF-8" standalone="no"?>
<!-- Created with Inkscape (http://www.inkscape.org/) --><svg height="256" id="svg3846" inkscape:output_extension="org.inkscape.output.svg.inkscape" inkscape:version="0.46" sodipodi:docname="Flag_of_the_Comoros.svg" sodipodi:version="0.32" version="1.0" width="256" xmlns="http://www.w3.org/2000/svg" xmlns:cc="http://creativecommons.org/ns#" xmlns:dc="http://purl.org/dc/elements/1.1/" xmlns:inkscape="http://www.inkscape.org/namespaces/inkscape" xmlns:rdf="http://www.w3.org/1999/02/22-rdf-syntax-ns#" xmlns:sodipodi="http://sodipodi.sourceforge.net/DTD/sodipodi-0.dtd" xmlns:svg="http://www.w3.org/2000/svg" xmlns:xlink="http://www.w3.org/1999/xlink">
  <metadata>
    <rdf:RDF xmlns:cc="http://web.resource.org/cc/" xmlns:dc="http://purl.org/dc/elements/1.1/" xmlns:rdf="http://www.w3.org/1999/02/22-rdf-syntax-ns#">
      <cc:Work rdf:about="">
        <dc:title></dc:title>
        <dc:description></dc:description>
        <dc:subject>
          <rdf:Bag>
            <rdf:li>unsorted</rdf:li>
          </rdf:Bag>
        </dc:subject>
        <dc:publisher>
          <cc:Agent rdf:about="http://www.openclipart.org/">
            <dc:title>Open Clip Art Library, Source: Wikimedia Commons, Source: Wikimedia Commons, Source: Wikimedia Commons, Source: Wikimedia Commons</dc:title>
          </cc:Agent>
        </dc:publisher>
        <dc:creator>
          <cc:Agent>
            <dc:title></dc:title>
          </cc:Agent>
        </dc:creator>
        <dc:rights>
          <cc:Agent>
            <dc:title></dc:title>
          </cc:Agent>
        </dc:rights>
        <dc:date></dc:date>
        <dc:format>image/svg+xml</dc:format>
        <dc:type rdf:resource="http://purl.org/dc/dcmitype/StillImage"/>
        <cc:license rdf:resource="http://en.wikipedia.org/wiki/Public_domain"/>
        <dc:language>en</dc:language>
      </cc:Work>
    </rdf:RDF>
  </metadata>
  <defs id="defs3861">
    <inkscape:perspective id="perspective3865" inkscape:persp3d-origin="250 : 100 : 1" inkscape:vp_x="0 : 150 : 1" inkscape:vp_y="0 : 1000 : 0" inkscape:vp_z="500 : 150 : 1" sodipodi:type="inkscape:persp3d"/>
  </defs>
  <sodipodi:namedview bordercolor="#666666" borderopacity="1.0" gridtolerance="10.0" guidetolerance="10.0" id="base" inkscape:current-layer="svg3846" inkscape:cx="250" inkscape:cy="150" inkscape:pageopacity="0.0" inkscape:pageshadow="2" inkscape:window-height="758" inkscape:window-width="878" inkscape:window-x="0" inkscape:window-y="189" inkscape:zoom="1.118" objecttolerance="10.0" pagecolor="#ffffff" showgrid="false"/>
  <rect height="153.60001" id="rect3848" style="fill:#ffc61e" width="256" x="0" y="51.399986"/>
  <rect height="115.2" id="rect2304" style="fill:#ffffff" width="256" x="0" y="89.799995"/>
  <rect height="76.800003" id="rect2926" style="fill:#ce1126" width="256" x="0" y="128.19998"/>
  <rect height="38.400002" id="rect3548" style="fill:#3a75c4" width="256" x="0" y="166.60001"/>
  <path d="M 0,204.99999 L 128,128.19999 L 0,51.399992 L 0,204.99999 L 0,204.99999 z" id="path4170" style="fill:#3d8e33"/>
  <path d="M 78.080005,128.19998 C 78.080005,147.28695 62.606966,162.75998 43.520002,162.75998 C 24.433037,162.75998 8.9599964,147.28695 8.9599964,128.19998 C 8.9599964,109.11302 24.433037,93.639982 43.520002,93.639982 C 62.606966,93.639982 78.080005,109.11302 78.080005,128.19998 z" id="path5413" style="fill:#ffffff"/>
  <path d="M 93.44,128.19999 C 93.44,147.28695 77.966966,162.75998 58.88,162.75998 C 39.793037,162.75998 24.319996,147.28695 24.319996,128.19998 C 24.319996,109.11302 39.793037,93.639982 58.88,93.639982 C 77.966966,93.639982 93.440005,109.11302 93.440005,128.19998 L 93.440051,128.19998 L 93.440051,128.19999 L 93.44,128.19999 z" id="path5414" style="fill:#3d8e33"/>
  <use height="300" id="use2407" transform="translate(0,49.472)" width="500" x="0" xlink:href="#path6092" y="0"/>
  <path d="M 45.113569,101.48639 L 49.763599,101.48639 L 51.199995,97.063992 L 52.63639,101.48639 L 57.286426,101.48639 L 53.525012,104.21919 L 54.961413,108.64159 L 51.199995,105.90878 L 47.438587,108.64159 L 48.874982,104.21919 L 45.113569,101.48639 z" id="path6092" style="fill:#ffffff"/>
  <use height="300" id="use2403" transform="translate(0,16.490652)" width="500" x="0" xlink:href="#path6092" y="0"/>
  <use height="300" id="use2405" transform="translate(0,32.981302)" width="500" x="0" xlink:href="#path6092" y="0"/>
</svg>

<svg xmlns="http://www.w3.org/2000/svg" xmlns:xlink="http://www.w3.org/1999/xlink" viewBox="0 0 256 256"><path fill="#ffc61e" d="m0 51.4h256v153.6h-256z"/><path fill="#fff" d="m0 89.8h256v115.2h-256z"/><path fill="#ce1126" d="m0 128.2h256v76.8h-256z"/><path fill="#3a75c4" d="m0 166.6h256v38.4h-256z"/><path d="m0 205l128-76.8-128-76.8v153.6" fill="#3d8e33"/><path d="m78.08 128.2c0 19.09-15.473 34.56-34.56 34.56-19.09 0-34.56-15.473-34.56-34.56 0-19.09 15.473-34.56 34.56-34.56 19.09 0 34.56 15.473 34.56 34.56" fill="#fff"/><path d="m93.44 128.2c0 19.09-15.473 34.56-34.56 34.56-19.09 0-34.56-15.473-34.56-34.56 0-19.09 15.473-34.56 34.56-34.56 19.09 0 34.56 15.473 34.56 34.56" fill="#3d8e33"/><use height="300" transform="translate(0 49.47)" width="500" xlink:href="#0"/><path d="m45.11 101.49h4.65l1.436-4.422 1.436 4.422h4.65l-3.761 2.733 1.436 4.422-3.761-2.733-3.761 2.733 1.436-4.422-3.761-2.733" id="0" fill="#fff"/><use height="300" transform="translate(0 16.491)" width="500" xlink:href="#0"/><use height="300" transform="translate(0 32.981)" width="500" xlink:href="#0"/></svg>
